assets/img/braze_icons/fast-forward.svg

<svg fill="none" height="24" viewBox="0 0 24 24" width="24" xmlns="http://www.w3.org/2000/svg"><g clip-rule="evenodd" fill="#801ed7" fill-rule="evenodd"><path d="m14.0748 4.22821c-.6232-.02333-1.2217.24541-1.6183.72671-.3191.38723-.3926.86437-.4239 1.21248-.0326.36241-.0326.82406-.0326 1.35043v8.96427c0 .5264 0 .988.0326 1.3504.0313.3481.1048.8253.4239 1.2125.3966.4813.9951.75 1.6183.7267.5014-.0187.9069-.2808 1.1879-.4886.2925-.2164.6376-.5232 1.031-.8729l5.051-4.4898c.2104-.187.4128-.3668.5696-.5322.1703-.1795.3576-.4126.4676-.7257.1505-.4288.1505-.8962 0-1.3251-.11-.3131-.2973-.5462-.4676-.7257-.1568-.1654-.3592-.3452-.5696-.5322-.0085-.0076-.0171-.0152-.0257-.0228l-5.0253-4.467c-.3934-.34972-.7385-.65645-1.031-.87285-.281-.20786-.6865-.46987-1.1879-.48864z"/><path d="m3.07481 4.22821c-.62323-.02333-1.22166.24541-1.61828.72671-.3191.38723-.39265.86437-.42397 1.21248-.032607.36241-.032584.82406-.03256 1.35043v8.96427c-.000024.5264-.000047.988.03256 1.3504.03132.3481.10487.8253.42397 1.2125.39662.4813.99505.75 1.61828.7267.50142-.0187.9069-.2808 1.18788-.4886.29254-.2164.63758-.5232 1.03098-.8729l5.05103-4.4898c.2104-.187.4128-.3668.5696-.5322.1703-.1795.3576-.4126.4676-.7257.1505-.4288.1505-.8962 0-1.3251-.11-.3131-.2973-.5462-.4676-.7257-.1568-.1654-.3592-.3452-.5696-.5322-.0085-.0076-.0171-.0152-.0257-.0228l-5.02535-4.467c-.39339-.34972-.73842-.65645-1.03096-.87285-.28098-.20786-.68646-.46987-1.18788-.48864z"/></g></svg>

<svg width="24" height="24" viewBox="0 0 24 24" fill="none" xmlns="http://www.w3.org/2000/svg">
<path fill-rule="evenodd" clip-rule="evenodd" d="M14.0748 4.22821C13.4516 4.20488 12.8531 4.47362 12.4565 4.95492C12.1374 5.34215 12.0639 5.81929 12.0326 6.1674C12 6.52981 12 6.99146 12 7.51783V16.4821C12 17.0085 12 17.4701 12.0326 17.8325C12.0639 18.1806 12.1374 18.6578 12.4565 19.045C12.8531 19.5263 13.4516 19.795 14.0748 19.7717C14.5762 19.753 14.9817 19.4909 15.2627 19.2831C15.5552 19.0667 15.9003 18.7599 16.2937 18.4102L21.3447 13.9204C21.5551 13.7334 21.7575 13.5536 21.9143 13.3882C22.0846 13.2087 22.2719 12.9756 22.3819 12.6625C22.5324 12.2337 22.5324 11.7663 22.3819 11.3374C22.2719 11.0243 22.0846 10.7912 21.9143 10.6117C21.7575 10.4463 21.5551 10.2665 21.3447 10.0795C21.3362 10.0719 21.3276 10.0643 21.319 10.0567L16.2937 5.5897C15.9003 5.23998 15.5552 4.93325 15.2627 4.71685C14.9817 4.50899 14.5762 4.24698 14.0748 4.22821Z" fill="#801ED7"/>
<path fill-rule="evenodd" clip-rule="evenodd" d="M3.07481 4.22821C2.45158 4.20488 1.85315 4.47362 1.45653 4.95492C1.13743 5.34215 1.06388 5.81929 1.03256 6.1674C0.999953 6.52981 0.999976 6.99146 1 7.51783V16.4821C0.999976 17.0085 0.999953 17.4701 1.03256 17.8325C1.06388 18.1806 1.13743 18.6578 1.45653 19.045C1.85315 19.5263 2.45158 19.795 3.07481 19.7717C3.57623 19.753 3.98171 19.4909 4.26269 19.2831C4.55523 19.0667 4.90027 18.7599 5.29367 18.4102L10.3447 13.9204C10.5551 13.7334 10.7575 13.5536 10.9143 13.3882C11.0846 13.2087 11.2719 12.9756 11.3819 12.6625C11.5324 12.2337 11.5324 11.7663 11.3819 11.3374C11.2719 11.0243 11.0846 10.7912 10.9143 10.6117C10.7575 10.4463 10.5551 10.2665 10.3447 10.0795C10.3362 10.0719 10.3276 10.0643 10.319 10.0567L5.29365 5.5897C4.90026 5.23998 4.55523 4.93325 4.26269 4.71685C3.98171 4.50899 3.57623 4.24698 3.07481 4.22821Z" fill="#801ED7"/>
</svg>
